!!!!SEGMENT: pl-kk--kk-i-1--049-005_szadek-tomasz--offitium-in-melodiam-motetae-pisneme-agnus-dei.krn
!!!cenid: 15xx:769
!!!COM: Szadek, Tomasz
!!!COM-rismid: pe30020506
!!!CDT:
!!!CNT:
!!!OPR: Offitium in melodiam motetae Pisneme
!!!OTL: Agnus Dei
!!!OMV: 005
!!!PDT:
!!!AGN:
!!!SMS-siglum: PL-Kk
!!!SMS-shelfmark: Kk.I.1
!!!SMS-shelfwork: 049-005 M
!!!SMS-variant:
!!!SMS-altvar:
!!!NIFC-rismid: 300258003
!!!URL-scan: http://repozytorium.nifc.pl/skany/pl-kk-nut--i-1
!!!ONB-nifc: UWAGA: Cantus (s. 152v-160r, skan 0155-0162), Altus (s. 148r-156r, skan 0341-0349), Tenor (s. 127v-136r, skan 0518-0526), Bassus (s. 139v-146v, skan 0702-0709). Części Mszy: 1. Kyrie, 2. Et in terra, 3. Patrem, 4. Sanctus, 5. Agnus Dei
!!!key: G:mix
**kern	**text	**kern	**text	**kern	**text	**kern	**text
*part4	*part4	*part3	*part3	*part2	*part2	*part1	*part1
*staff4	*staff4	*staff3	*staff3	*staff2	*staff2	*staff1	*staff1
*I"BASSVS	*	*I"TENOR	*	*I"ALTVS	*	*I"CANTVS	*
*I'B	*	*I'T	*	*I'A	*	*I'S	*
*ICvox	*	*ICvox	*	*ICvox	*	*ICvox	*
*Ibass	*	*Itenor	*	*Ialto	*	*Isoprn	*
*clefF4	*	*clefC3	*	*clefC3	*	*clefC2	*
*k[b-]	*	*k[b-]	*	*k[b-]	*	*k[b-]	*
*G:mix	*	*G:mix	*	*G:mix	*	*G:mix	*
*M2/1	*	*M2/1	*	*M2/1	*	*M2/1	*
*met(C)	*	*met(C)	*	*met(C)	*	*met(C)	*
=1	=1	=1	=1	=1	=1	=1	=1
!	!	!	!	!	!	!LO:TX:t=P:problem: w źródle w pierwszym systemie Agnus zapisane znaki przykluczowe B-, b-	!
!	!	!LO:TX:t=P:problem:sześciolinia	!	!LO:TX:t=P:problem:sześciolinia	!	!LO:TX:t=P:problem:sześciolinia	!
!	!	!LO:TX:t=P:problem:Tenor zapisany w kluczu altowym	!	!	!	!	!
!	!	!	!	!	!	!LO:TX:t=P:problem:Cantus zapisany w kluczu mezzosopranowym	!
0r	.	1r	.	1d	A-	0r	.
.	.	1G	A-	2g\	-gnus	.	.
.	.	.	.	2g\	de-	.	.
=2	=2	=2	=2	=2	=2	=2	=2
0r	.	2d/	-gnus	2f\	-i	2r	.
.	.	1d	de-	1f	qui	2d/	A-
.	.	.	.	.	.	2a\	-Gnus
!	!	!	!	!	!	!LO:TX:t=P:problem:kreski pesudotaktowe zanotowane apostrofami, zgodnie z ustaleniami z NIFC nie notuję ich, bo pokrywają sie z naszymi kreskami taktowymi.	!
.	.	2d/	-i	2f\	tol-	1a	de-
=3	=3	=3	=3	=3	=3	=3	=3
0r	.	2c/	qui	2e\	-lis	.	.
.	.	2A/	tol-	2c/	p(ec)-	2a\	-i
.	.	2c/	-lis	2e\	-c(a)-	2g\	qui
.	.	2G/	pec-	4d/	-ta	2b-\	tol-
.	.	.	.	4e/	.	.	.
=4	=4	=4	=4	=4	=4	=4	=4
1r	.	2d\	-ca-	4f/	.	2a\	-lis
.	.	.	.	4d/	.	.	.
.	.	2e-X\	-ta	1g	.	2g\	pec-
1D	A ­	1d	mun-	.	.	1a	-ca-
.	.	.	.	2f\	mun-	.	.
=5	=5	=5	=5	=5	=5	=5	=5
2G\	­ gnus	2B-/	-di	1g	-di	2d/	-ta
*	*	*	*ij	*	*	*	*
1G	de-	2G/	qui	.	.	2d/	qui
.	.	2d/	tol-	2r	.	2g\	.
!	!	!LO:SIC:v:t=custos c	!	!	!	!	!
2B-\	-i	2d/	-lis	2d/	qui	4f\	tol-
.	.	.	.	.	.	4g\	-(lis)
!	!	!LO:LB:g=original	!	!	!	!	!
=6	=6	=6	=6	=6	=6	=6	=6
!LO:TX:t=P:problem:poprawka wysokości	!	!	!	!	!	!	!
2.F\	qui	2.c/	pec-	2.f\	tol-	4a\	.
.	.	.	.	.	.	4g\	.
.	.	.	.	.	.	4a\	.
4BB-/	tol-	4d/	.	4f\	-lis	4b-\	.
2F\	-lis	2c/	.	2f\	p(ec)-	2a\	.
2G\	p(ec)-	2B-/	.	1d	-c(a)-	2g\	.
=7	=7	=7	=7	=7	=7	=7	=7
2D/	-c(a)-	2.A/	-ca-	.	.	2f\	.
!	!	!	!	!LO:SIC:v:t=custos B-	!	!LO:SIC:v:t=custos d	!
4F\	-ta	.	.	2c/	-ta	2A/	A-
4E\	.	4G/	.	.	.	.	.
!	!	!	!	!LO:LB:g=original	!	!LO:LB:g=original	!
4D/	.	4F/	.	2B-/	.	2d/	-gnus
4C/	.	4E/	.	.	.	.	.
4BB-/	.	2F/	-ta	1A	.	1d	de-
!LO:SIC:v:t=custos BB-	!	!	!	!	!	!	!
4AA/	.	.	.	.	.	.	.
!LO:LB:g=original	!	!	!	!	!	!	!
=8	=8	=8	=8	=8	=8	=8	=8
1BB-	mun-	2F/	mun-	.	.	.	.
.	.	2D/	.	2G/	mun-	2d/	-i
2AA/	-di	1A	-di	2A/	-di	2c/	q(ui)
*	*ij	*	*Xij	*	*ij	*	*
1F	p(ec)-	.	.	1a	p(ec)-	2A/	.
=9	=9	=9	=9	=9	=9	=9	=9
.	.	0r	.	.	.	2c/	.
2E\	-c(a)-	.	.	2g\	.	2G/	.
!	!	!	!	!LO:TX:t=P:problem:# above	!	!	!
2D/	-ta	.	.	2f#X\	-c(a)-	2d/	.
2C/	mun-	.	.	2.g\	-ta	2e-X/	.
=10	=10	=10	=10	=10	=10	=10	=10
1D	-di	1A	A-	.	.	1d	.
.	.	.	.	8f\L	.	.	.
.	.	.	.	8e\J	.	.	.
.	.	.	.	2f\	mun-	.	.
2r	.	2d\	-gnus	2g\	-di	1G	.
*	*Xij	*	*	*	*Xij	*	*
2G\	qui	1d	de-	1b-	A-	.	.
=11	=11	=11	=11	=11	=11	=11	=11
2G\	tol-	.	.	.	.	2r	.
2D/	-lis	2f\	-i	4a\	-gnus	2d/	a-
.	.	.	.	4g\	.	.	.
2F\	p(ec)-	2.c/	qui	2.f\	de-	2.a\	-gnus
1F	-c(a)-	.	.	.	.	.	.
.	.	4c/	tol-	4f\	-i	4a\	de-
=12	=12	=12	=12	=12	=12	=12	=12
.	.	2c/	-lis	2f\	qui	2a\	-i
2G\	-ta	2B-/	p(ec)-	2d/	tol-	2b-\	q(ui)
2F\	mun-	2c/	-c(a)-	2A/	-lis	2.f\	tol-
2BB-/	-di	2.d/	-ta	4B-/	p(ec)-	.	.
.	.	.	.	4A/	.	4f/	-lis
=13	=13	=13	=13	=13	=13	=13	=13
1r	.	.	.	4B-/	-c(a)-	4f/	p(ec)-
.	.	4c/	.	4c/	-ta	4e/	-c(a)-
!	!	!LO:SIC:v:t=custos B-	!	!LO:SIC:v:t=custos d	!	!	!
.	.	2B-/	.	2d/	.	1g	-ta
!	!	!	!	!LO:LB:g=original	!	!	!
*	*ij	*	*	*	*	*	*
1D	qui	1A	.	1d	mun-	.	.
!	!	!	!	!	!	!LO:SIC:v:t=custos g	!
.	.	.	.	.	.	2f\	m(un)-
!	!	!	!	!	!	!LO:LB:g=original	!
=14	=14	=14	=14	=14	=14	=14	=14
2G\	tol-	2r	.	2d/	-di	2g\	  di
*	*	*	*ij	*	*ij	*	*
1G	-lis	2G/	qui	1g	qui	1b-	qui
.	.	2d/	.	.	.	.	.
2B-\	p(ec)-	2d/	tol-	4f\	.	2b-\	tol-
.	.	.	.	4e\	.	.	.
=15	=15	=15	=15	=15	=15	=15	=15
2.F\	-c(a)-	2.c/	.	1f	tol-	4a\	.
.	.	.	.	.	.	4g\	-lis
.	.	.	.	.	.	4a\	p(ec)-
!LO:SIC:v:t=custos F	!	!	!	!	!	!	!
4F\	-ta	4c/	-lis	.	.	4b-\	-c(a)-
!LO:LB:g=original	!	!	!	!	!	!	!
2F\	mun-	2A/	.	2c/	-lis	2a\	-ta
1E-X	.	2.B-/	p(ec)-	2e-X\	p(ec)-	1g	mun-
=16	=16	=16	=16	=16	=16	=16	=16
.	.	.	.	2e\	.	.	.
.	.	4G/	.	.	.	.	.
2F\	.	2A/	.	4d/	.	4f/	.
.	.	.	.	4c/	.	4e/	.
2G\	.	1B-	-c(a)-	4B-/	-c(a)-	2d/	-di
.	.	.	.	4c/	.	.	.
2G\	-di	.	.	2d/	-ta	2.g\	qui
*	*Xij	*	*	*	*	*	*
=17	=17	=17	=17	=17	=17	=17	=17
2D/	.	1A	-ta	1d	mun-	.	.
.	.	.	.	.	.	8f/L	.
.	.	.	.	.	.	8e/J	.
2D/	mi-	.	.	.	.	2f\	tol-
2E-X/	-ſe-	2G/	p(ec)-	1G	-di	2g\	-(lis)
*	*	*	*	*	*Xij	*	*
2C/	-re-	4c/	-c(a)-	.	.	2e/	.
.	.	4B-/	-ta	.	.	.	.
=18	=18	=18	=18	=18	=18	=18	=18
2D/	-re	4A/	.	1r	.	2d/	.
.	.	4G/	.	.	.	.	.
2E-X/	no-	1G	mun-	.	.	2c/	.
1D	-bis	.	.	1A	mi-	1d	.
.	.	2F/	-di	.	.	.	.
*	*	*	*Xij	*	*	*	*
=19	=19	=19	=19	=19	=19	=19	=19
1r	.	1G	.	2B-/	-ſe-	2d/	.
.	.	.	.	2G/	-re-	2e/	mi-
2r	.	1r	.	2A/	-re	2f/	-ſe-
*	*ij	*	*	*	*	*	*
!	!	!	!	!	!	!LO:SIC:v:t=custos e	!
1G	mi-	.	.	2B-/	no-	2d/	-re-
!	!	!	!	!	!	!LO:LB:g=original	!
=20	=20	=20	=20	=20	=20	=20	=20
.	.	2r	.	1A	-bis	2e/	-re
!	!	!LO:SIC:v:t=custos B-	!	!	!	!	!
2F\	-ſe-	2A/	mi-	.	.	2f/	no-
!	!	!LO:LB:g=original	!	!	!	!	!
2G\	-re-	2B-/	-ſe-	2d/	.	2d/	-bis
!	!	!	!	!LO:SIC:v:t=custos c	!	!	!
*	*	*	*	*	*	*	*ij
2E-X\	-re	2G/	-re-	2e-X\	.	2g\	mi-
!	!	!	!	!LO:LB:g=original	!	!	!
=21	=21	=21	=21	=21	=21	=21	=21
2F\	no-	2A/	-re	2c/	.	2.f\	-ſe-
2D/	-bis	2B-/	no-	1d	.	.	.
.	.	.	.	.	.	4g\	.
2r	.	1A	-bis	.	.	1a	-re-
2A\	.	.	.	2c/	.	.	.
=22	=22	=22	=22	=22	=22	=22	=22
2B-\	.	2r	.	2d/	.	2f\	-re
!LO:SIC:v:t=custos A	!	!	!	!	!	!	!
*	*Xij	*	*ij	*	*	*	*
2G\	.	2B-/	mi-	2g\	mi-	2b-\	no-
!LO:LB:g=original	!	!	!	!	!	!	!
2A\	.	2c/	-ſe-	2f\	-ſe-	2a\	.
2B-\	.	1d	-re-	4e\	-re-	2g\	.
.	.	.	.	4d\	-re	.	.
=23	=23	=23	=23	=23	=23	=23	=23
1A	.	.	.	1e	no-	2a\	-bis
*	*	*	*	*	*	*	*Xij
.	.	2c/	.	.	.	2a\	mi-
1r	.	2d/	-re	2f\	.	2b-\	-ſe-
.	.	4c/	no-	2e\	-bis	2g\	-re-
.	.	4B-/	.	.	.	.	.
=24	=24	=24	=24	=24	=24	=24	=24
1D	.	2A/	-bis	2.d/	.	2a\	-re
*	*	*	*Xij	*	*	*	*
.	.	2A/	mi-	.	.	2f\	.
.	.	.	.	4c/	.	.	.
2G\	.	2B-/	-ſe-	4d/	.	2g\	.
.	.	.	.	4e/	.	.	.
2F\	.	4A/	-re-	2f\	.	2.a\	.
.	.	4B-/	.	.	.	.	.
=25	=25	=25	=25	=25	=25	=25	=25
2C/	.	4c/	.	2e-X\	.	.	.
.	.	4B-/	.	.	.	4g/	.
2E-X/	.	4A/	-re	2c/	.	1g	no-
.	.	4G/	.	.	.	.	.
!	!	!LO:SIC:v:t=custos G	!	!	!	!	!
1D	.	1A	no-	1d	.	.	.
.	.	.	.	.	.	2f/	-bis
!	!	!LO:LB:g=original	!	!	!	!	!
=26	=26	=26	=26	=26	=26	=26	=26
2r	.	2G/	-bis	2e\	.	[0g;<l	.
2C/	mi-	2G/	.	2c/	.	.	.
2G\	-ſe-	2B-/	.	2d/	.	.	.
2C/	-re-	1c	.	2e\	.	.	.
=27	=27	=27	=27	=27	=27	=27	=27
1G	-re	.	.	1d	.	0g_	.
.	.	2B-/	.	.	.	.	.
1C	no-	1.c	.	1e	.	.	.
=28	=28	=28	=28	=28	=28	=28	=28
*lig	*	*	*	*	*	*	*
1G	-bis	.	.	0d;	.	0g]	.
.	.	4B-/	.	.	.	.	.
.	.	4A/	.	.	.	.	.
!	!	!LO:N:acc=#	!	!	!	!	!
!	!	!LO:TX:t=P:problem:# below	!	!	!	!	!
!	!	!LO:N:vis=0	!	!	!	!	!
1GG;	.	1Bn;	­ bis.	.	.	.	.
*Xlig	*	*	*	*	*	*	*
=29	=29	=29	=29	=29	=29	=29	=29
*	*	*	*	*	*	*M2/1	*
*	*	*	*	*	*	*met(C)	*
!LO:TX:a:B:t=2d(u)m Agnus	!	!	!	!LO:TX:a:B:t=Se(cun)d(u)m agnus	!	!	!
!	!	!	!	!	!	!LO:TX:t=P:problem: w źródle w pierwszym systemie zapisane znaki przykluczowe B-, b-	!
1r	.	1G	A-	1g	A	1b-	A-
1D	A-	1d	-gnus	1f	Gnus	2a\	-gnus
.	.	.	.	.	.	2a\	de-
=30	=30	=30	=30	=30	=30	=30	=30
1G	-gnus	1B-	de-	2.d\	.	2g\	-i
.	.	.	.	.	.	2d/	q(ui)
.	.	.	.	4e\	de-	.	.
!LO:SIC:v:t=custos D	!	!	!	!	!	!	!
1F	de-	2c/	-i	2f\	-i	1a	tol-
.	.	2A/	qui	1f	qui	.	.
!LO:LB:g=original	!	!	!	!	!	!	!
=31	=31	=31	=31	=31	=31	=31	=31
1D	-i	1d	tol-	.	.	1a	-lis
.	.	.	.	2f\	tol-	.	.
1r	.	2d\	-lis	2f\	-lis	2.a\	p(ec)-
.	.	2f\	p(ec)-	2.a\	p(ec)-	.	.
.	.	.	.	.	.	4b-\	.
=32	=32	=32	=32	=32	=32	=32	=32
1r	.	2c/	-c(a)-	.	.	4cc\	-c(a)-
.	.	.	.	4g\	-c(a)-	4b-\	.
!	!	!LO:SIC:v:t=custos d	!	!	!	!	!
.	.	2e-X\	-ta	1g	-ta	4a\	-ta
.	.	.	.	.	.	4g\	.
!	!	!LO:LB:g=original	!	!	!	!	!
1D	Qui	1d	mun-	.	.	1a	mun-
.	.	.	.	2f\	m(un)-	.	.
=33	=33	=33	=33	=33	=33	=33	=33
1G	tol-	2G/	-di	2g\	-di	1b-	-di
*	*	*	*ij	*	*	*	*
.	.	2.g\	qui	4G/	.	.	.
.	.	.	.	4A/	.	.	.
2G\	-lis	.	.	4B-/	.	1d	a-
.	.	4f\	.	4A/	.	.	.
2B-\	p(ec)-	4e\	.	1d	.	.	.
.	.	4d\	.	.	.	.	.
=34	=34	=34	=34	=34	=34	=34	=34
1A	-c(a)-	1e	tol-	.	.	1a	-gn(us)
.	.	.	.	2c/	.	.	.
4F\	-ta	2f\	-lis	2d/	.	2a\	.
*	*	*	*Xij	*	*	*	*
4G\	.	.	.	.	.	.	.
4A\	m(un)-	2f\	pec-	2a\	.	2cc\	.
4B-\	.	.	.	.	.	.	.
=35	=35	=35	=35	=35	=35	=35	=35
2c\	-di	2e\	-ca-	2.g\	p(ec)-	2g\	.
2G\	.	1d	-ta	.	.	2b-\	.
.	.	.	.	4f\	-c(a)-	.	.
!	!	!	!	!LO:SIC:v:t=custos f	!	!	!
1A	.	.	.	1e	-ta	1a	.
.	.	2c/	mun-	.	.	.	.
!	!	!	!	!LO:LB:g=original	!	!	!
=36	=36	=36	=36	=36	=36	=36	=36
1D	.	1d	-di	2f\	.	2f/	.
!	!	!	!	!	!	!LO:SIC:v:t=custos e	!
.	.	.	.	1d	.	1f	pec-
1A	.	1r	.	.	.	.	.
!	!	!	!	!	!	!LO:LB:g=original	!
.	.	.	.	4c/	.	4e/	-ca-
.	.	.	.	4B-/	.	4d/	.
=37	=37	=37	=37	=37	=37	=37	=37
2A\	.	2.e\	.	2c/	.	2e/	-ta
2c\	.	.	.	2A/	.	2c/	m(un)-
.	.	4f\	.	.	.	.	.
2G\	.	4g\	.	2G/	qui	2d/	-di
.	.	4f\	.	.	.	.	.
2B-\	.	4e\	.	1d	tol-	2d/	a-
.	.	4d\	.	.	.	.	.
=38	=38	=38	=38	=38	=38	=38	=38
1A	.	1e	.	.	.	1a	-gn(us)
.	.	.	.	2c/	-lis	.	.
1D	.	2f\	.	2d/	p(ec)-	1a	.
!	!	!LO:SIC:v:t=custos c	!	!	!	!	!
.	.	2d\	.	1f	-c(a)-	.	.
!	!	!LO:LB:g=original	!	!	!	!	!
=39	=39	=39	=39	=39	=39	=39	=39
0r	.	1c	.	.	.	2cc\	.
.	.	.	.	4e\	-ta	2.g\	.
.	.	.	.	4d\	.	.	.
.	.	2c/	.	4e\	.	.	.
.	.	.	.	4f\	.	4a\	.
.	.	2G/	.	1g	.	2b-\	.
=40	=40	=40	=40	=40	=40	=40	=40
1D	.	1d	.	.	.	1a	.
.	.	.	.	2f\	.	.	.
!LO:SIC:v:t=custos G	!	!	!	!	!	!	!
1G	.	2r	.	2g\	.	2d/	.
.	.	2.B-/	.	2.g\	.	2.b-\	pec-
!LO:LB:g=original	!	!	!	!	!	!	!
=41	=41	=41	=41	=41	=41	=41	=41
2G\	.	.	.	.	.	.	.
.	.	4c/	.	4f\	.	4a\	.
2B-\	.	2d/	.	4d/	.	4f\	-ca-
.	.	.	.	4e/	.	4g\	-ta
2F\	.	2c/	.	4f\	.	4a\	.
.	.	.	.	4e\	.	4g\	.
2G\	.	2B-/	.	4d\	.	2.g\	mun-
.	.	.	.	4c\	.	.	.
=42	=42	=42	=42	=42	=42	=42	=42
1D	.	1A	.	1d	.	.	.
.	.	.	.	.	.	8f/L	.
.	.	.	.	.	.	8e/J	.
.	.	.	.	.	.	2f\	-di
!	!	!	!	!LO:SIC:v:t=custos g	!	!LO:SIC:v:t=custos b-	!
1G	.	2G/	.	2d/	.	2g\	.
!	!	!	!	!LO:LB:g=original	!	!LO:LB:g=original	!
.	.	2d/	mi-	2g\	mi-	2b-\	mi-
=43	=43	=43	=43	=43	=43	=43	=43
0r	.	2A/	-ſe-	2f\	-ſe-	2.a\	-ſe-
.	.	2c/	-re-	2.e\	-re-	.	.
.	.	.	.	.	.	4g/	-re-
.	.	2d/	-re	.	.	2f\	-re
.	.	.	.	4d/	-re	.	.
.	.	2G/	no-	1d	.	2g\	no-
=44	=44	=44	=44	=44	=44	=44	=44
1r	.	1A	-bis	.	.	1e	-bis
.	.	.	.	2c/	no-	.	.
1G	mi-	2.B-/	.	2d/	-bis	2d/	.
.	.	.	.	2g\	.	2.b-\	mi-
!	!	!LO:SIC:v:t=custos d	!	!	!	!	!
.	.	4c/	.	.	.	.	.
!	!	!LO:LB:g=original	!	!	!	!	!
=45	=45	=45	=45	=45	=45	=45	=45
2D/	-ſe-	2d/	.	2.f\	.	.	.
.	.	.	.	.	.	4a\	-ſe:
2F\	-re-	2c/	.	.	.	2.a\	.
.	.	.	.	4e\	.	.	.
2G\	-re	2B-/	.	2d\	.	.	.
.	.	.	.	.	.	4g\	.
2C/	no-	2c/	.	2e-X\	.	2.g\	.
=46	=46	=46	=46	=46	=46	=46	=46
2.D/	-bis	1A	.	2d\	.	.	.
.	.	.	.	.	.	4f/	.
.	.	.	.	1a	.	2.f\	.
4D/	.	.	.	.	.	.	.
2AA/	.	2.c/	.	.	.	.	.
.	.	.	.	.	.	4e/	.
2C/	.	.	.	2g\	.	2.e/	.
.	.	4B-/	.	.	.	.	.
=47	=47	=47	=47	=47	=47	=47	=47
2D/	.	2A/	.	2f\	.	.	.
.	.	.	.	.	.	4d/	.
2GG/	.	2B-/	.	2g\	.	1d	.
*lig	*	*	*ij	*	*	*	*
1AA	.	1A	.	1e	.	.	.
.	.	.	.	.	.	2c/	.
=48	=48	=48	=48	=48	=48	=48	=48
1D	.	2A/	.	2d/	.	2d/	.
.	.	1f	mi-	2d/	mi-	1a	mi-
*Xlig	*ij	*	*	*	*	*	*
1r	.	.	.	2A/	-ſe-	.	.
.	.	2e\	-ſe-	2c/	-re-	2.g\	-ſe-
=49	=49	=49	=49	=49	=49	=49	=49
1G	mi-	1.d	-re-	2d/	-re	.	.
.	.	.	.	.	.	4a\	-re-
!	!	!	!	!LO:SIC:v:t=custos A	!	!LO:SIC:v:t=custos a	!
.	.	.	.	2G/	no-	2b-\	.
!	!	!	!	!LO:LB:g=original	!	!LO:LB:g=original	!
2D/	-ſe-	.	.	1A	-bis	4a\	-re
.	.	.	.	.	.	4g\	.
2F\	-re-	2c/	-re	.	.	4f/	.
.	.	.	.	.	.	4e/	.
=50	=50	=50	=50	=50	=50	=50	=50
2G\	-re	2B-/	no-	1r	.	2d/	.
!LO:SIC:v:t=custos D	!	!	!	!	!	!	!
2C/	no-	2c/	-bis	.	.	2.g\	.
*	*	*	*Xij	*	*ij	*	*
!LO:LB:g=original	!	!	!	!	!	!	!
1D	-bis	1A	.	1d	mi-	.	.
*	*Xij	*	*	*	*	*	*
.	.	.	.	.	.	8f/L	no-
.	.	.	.	.	.	8e/J	.
.	.	.	.	.	.	2f\	-bis.
=51	=51	=51	=51	=51	=51	=51	=51
2r	.	2G/	.	2.B-/	-ſe-	[0g;<l	.
1G	.	2d/	.	.	.	.	.
.	.	.	.	4c/	.	.	.
.	.	2B-/	.	2d/	-re-	.	.
2C/	.	1c	.	1e	.	.	.
=52	=52	=52	=52	=52	=52	=52	=52
2C/	.	.	.	.	.	0g_	.
2G\	.	2d\	.	2d/	-re	.	.
1C	.	1e-X	.	1c	no-	.	.
=53	=53	=53	=53	=53	=53	=53	=53
0G	.	0d;<	.	0B-;	-bis	0g]	.
*	*	*	*	*	*Xij	*	*
==	==	==	==	==	==	==	==
*-	*-	*-	*-	*-	*-	*-	*-
!!!system-decoration: [(s1,s2,s3,s4)]
!!!RDF**kern: < = below
!!!RDF**kern: > = above
!!!RDF**kern: l = terminal long
!!!ENC: Mateusz Solarz
!!!END: 2022-03-14
!!!AIN: 1 alto 1 bass 1 soprn 1 tenor
!!!ENC: Natalia Wrzos
!!!END: 2022-03-19
